src/components/Icon/assets/twitter.svg

<svg width="24" height="24" viewBox="0 0 24 24" fill="none" xmlns="http://www.w3.org/2000/svg">
<path fill-rule="evenodd" clip-rule="evenodd" d="M8.28969 20.1251C15.8367 20.1251 19.9647 13.8731 19.9647 8.45009C19.9647 8.27209 19.9647 8.09609 19.9527 7.92009C20.7557 7.33909 21.4487 6.62009 21.9997 5.79609C21.2507 6.12809 20.4567 6.34609 19.6437 6.44109C20.4997 5.92909 21.1407 5.12209 21.4477 4.17209C20.6417 4.64909 19.7607 4.98609 18.8417 5.16809C17.2877 3.51609 14.6877 3.43609 13.0357 4.98909C11.9707 5.99209 11.5187 7.48509 11.8487 8.91009C8.54969 8.74509 5.47569 7.18709 3.39169 4.62309C2.30269 6.49809 2.85869 8.89609 4.66269 10.1011C4.00969 10.0811 3.37069 9.90509 2.79969 9.58709V9.63909C2.80069 11.5931 4.17769 13.2741 6.09169 13.6611C5.48769 13.8261 4.85369 13.8511 4.23969 13.7311C4.77669 15.4031 6.31669 16.5491 8.07269 16.5811C6.61969 17.7241 4.82469 18.3441 2.97669 18.3421C2.65069 18.3411 2.32469 18.3211 1.99969 18.2821C3.87669 19.4861 6.05969 20.1251 8.28969 20.1221" fill="#65676A"/>
</svg>

<svg xmlns="http://www.w3.org/2000/svg" width="24" height="24" viewBox="0 0 24 24">
    <path fill="#65676A" fill-rule="evenodd" d="M8.29 20.125c7.547 0 11.675-6.252 11.675-11.675 0-.178 0-.354-.012-.53.803-.58 1.496-1.3 2.047-2.124-.75.332-1.543.55-2.356.645.856-.512 1.497-1.319 1.804-2.269-.806.477-1.687.814-2.606.996-1.554-1.652-4.154-1.732-5.806-.179-1.065 1.003-1.517 2.496-1.187 3.921-3.3-.165-6.373-1.723-8.457-4.287-1.09 1.875-.533 4.273 1.27 5.478-.652-.02-1.291-.196-1.862-.514v.052c0 1.954 1.378 3.635 3.292 4.022-.604.165-1.238.19-1.852.07.537 1.672 2.077 2.818 3.833 2.85-1.453 1.143-3.248 1.763-5.096 1.761-.326 0-.652-.02-.977-.06 1.877 1.204 4.06 1.843 6.29 1.84"/>
</svg>
